src/img/vk-icon.svg

<svg width="20" height="20" viewBox="0 0 20 20" fill="none" xmlns="http://www.w3.org/2000/svg">
<path d="M14.8458 12.2863C14.8458 12.9366 14.7228 13.5079 14.4767 14.0001C14.2306 14.4923 13.8995 14.8995 13.4835 15.2218C12.9913 15.6085 12.4493 15.8839 11.8575 16.048C11.2716 16.212 10.5245 16.2941 9.61633 16.2941H4.37805V3.20715H9.0011C9.96204 3.20715 10.6886 3.24524 11.1808 3.32141C11.6788 3.39172 12.1447 3.54407 12.5782 3.77844C13.047 4.0304 13.3956 4.36731 13.6241 4.78918C13.8585 5.21106 13.9757 5.69739 13.9757 6.24817C13.9757 6.88684 13.8146 7.4552 13.4923 7.95325C13.1759 8.45129 12.7365 8.8175 12.174 9.05188V9.12219C12.9825 9.29211 13.63 9.64075 14.1163 10.1681C14.6027 10.6896 14.8458 11.3956 14.8458 12.2863ZM10.6359 6.90735C10.6359 6.69641 10.5802 6.47961 10.4689 6.25696C10.3634 6.0343 10.1964 5.87317 9.9679 5.77356C9.7511 5.67981 9.49329 5.63 9.19446 5.62415C8.90149 5.61243 8.46204 5.60657 7.8761 5.60657H7.64758V8.37512H8.06067C8.62317 8.37512 9.01575 8.36926 9.2384 8.35754C9.46692 8.34583 9.70129 8.2843 9.94153 8.17297C10.2052 8.04993 10.3868 7.88 10.4865 7.66321C10.5861 7.44641 10.6359 7.19446 10.6359 6.90735ZM11.462 12.2247C11.462 11.8204 11.38 11.504 11.2159 11.2755C11.0519 11.047 10.8058 10.8741 10.4777 10.757C10.2784 10.6808 10.0031 10.6398 9.65149 10.6339C9.30579 10.6222 8.83997 10.6163 8.25403 10.6163H7.64758V13.8947H7.82336C8.67883 13.8947 9.27063 13.8888 9.59875 13.8771C9.92688 13.8654 10.2609 13.7863 10.6007 13.6398C10.8995 13.5109 11.1163 13.3234 11.2511 13.0773C11.3917 12.8253 11.462 12.5411 11.462 12.2247Z" fill="#3E9CDC"/>
</svg>

<svg xmlns="http://www.w3.org/2000/svg" width="20" height="20" fill="none" viewBox="0 0 20 20"><path fill="#3e9cdc" d="M14.846 12.286q0 .976-.37 1.714-.368.739-.993 1.222a4.6 4.6 0 0 1-1.626.826q-.878.246-2.24.246H4.377V3.207h4.623q1.442 0 2.18.114.747.106 1.397.457.704.379 1.046 1.011.351.633.352 1.46 0 .957-.484 1.704a2.8 2.8 0 0 1-1.318 1.099v.07q1.213.255 1.942 1.046.73.783.73 2.118m-4.21-5.379q0-.315-.167-.65a.96.96 0 0 0-.501-.483 2 2 0 0 0-.774-.15 36 36 0 0 0-1.318-.017h-.228v2.768h.413q.843 0 1.177-.017.343-.018.704-.185.395-.184.544-.51.15-.325.15-.756m.826 5.318q0-.607-.246-.95t-.738-.518q-.3-.114-.827-.123a44 44 0 0 0-1.397-.018h-.606v3.279h.175q1.284 0 1.776-.018t1.002-.237q.447-.195.65-.563.21-.378.211-.852"/></svg>
